img/svg/icon-font/address.svg

<svg width="22" height="22" viewBox="0 0 22 22" fill="none" xmlns="http://www.w3.org/2000/svg">
<g clip-path="url(#clip0)">
<path d="M5.18914 8.79146C5.18914 10.8014 6.8243 12.4366 8.83426 12.4366C9.30809 12.4366 9.69195 12.8206 9.69195 13.2943C9.69195 13.7681 9.30809 14.152 8.83426 14.152C5.87848 14.152 3.47375 11.7472 3.47375 8.79146C3.47375 5.83552 5.87848 3.43078 8.83426 3.43078C11.7902 3.43078 14.1949 5.83552 14.1949 8.79146C14.1949 9.26512 13.8109 9.64915 13.3372 9.64915C12.8636 9.64915 12.4795 9.26512 12.4795 8.79146C12.4795 6.7815 10.8442 5.14617 8.83426 5.14617C6.8243 5.14617 5.18914 6.7815 5.18914 8.79146ZM5.86304 16.3776C3.66207 13.9675 1.76138 11.8859 1.75836 8.78307C1.76289 4.88601 4.9372 1.71539 8.83426 1.71539C12.7315 1.71539 15.9056 4.88601 15.9102 8.78307C15.9108 9.25656 16.2947 9.63992 16.7679 9.63975H16.7689C17.2425 9.63925 17.6262 9.25471 17.6255 8.78105C17.6229 6.4349 16.7073 4.22973 15.0473 2.57157C13.3873 0.913252 11.1807 0 8.83426 0C6.48793 0 4.28142 0.913252 2.62126 2.57157C0.961424 4.22973 0.0456543 6.4349 0.0429688 8.7829C0.0446472 10.4921 0.519317 12.0957 1.49434 13.6854C2.33844 15.0619 3.43514 16.2628 4.5963 17.5344C5.73464 18.7812 6.91191 20.0702 7.85202 21.5577C8.01517 21.8158 8.29329 21.9572 8.57779 21.9572C8.73456 21.9572 8.893 21.9144 9.03534 21.8244C9.43565 21.5713 9.55516 21.0416 9.30204 20.6411C8.28087 19.0256 7.05173 17.6794 5.86304 16.3776ZM21.7752 16.7892C21.606 16.9743 21.3744 17.0681 21.1421 17.0681C20.9353 17.0681 20.728 16.9939 20.5635 16.8436L20.4561 16.7454V19.5835C20.4561 20.916 19.3728 22 18.0415 22H13.2216C11.8902 22 10.807 20.916 10.807 19.5835V16.7846L10.7425 16.8436C10.3929 17.1633 9.8504 17.139 9.53065 16.7893C9.21107 16.4397 9.23541 15.8971 9.58503 15.5775L14.012 11.53C14.9476 10.6749 16.3585 10.6749 17.2939 11.53L20.1303 14.1234C20.1617 14.1483 20.1912 14.1753 20.2188 14.2042L21.721 15.5775C22.0706 15.8971 22.095 16.4397 21.7752 16.7892ZM18.7407 15.177L16.1364 12.7961C15.8608 12.5442 15.4452 12.5442 15.1696 12.7961L12.5223 15.2161V19.5835C12.5223 19.97 12.836 20.2846 13.2218 20.2846H18.0415C18.427 20.2846 18.7407 19.97 18.7407 19.5835V15.177Z" fill="#4C51CB"/>
</g>
<defs>
<clipPath id="clip0">
<rect width="22" height="22" fill="white"/>
</clipPath>
</defs>
</svg>

<svg width="22" height="22" fill="none" xmlns="http://www.w3.org/2000/svg"><g clip-path="url(#clip0)"><path d="M5.19 8.791a3.65 3.65 0 003.644 3.646.858.858 0 110 1.715 5.367 5.367 0 01-5.36-5.36 5.367 5.367 0 015.36-5.361 5.367 5.367 0 015.36 5.36.858.858 0 01-1.715 0 3.65 3.65 0 00-3.645-3.645A3.65 3.65 0 005.19 8.791zm.673 7.587c-2.2-2.41-4.102-4.492-4.105-7.595.005-3.897 3.18-7.068 7.076-7.068 3.898 0 7.072 3.171 7.076 7.068a.858.858 0 101.715-.002 8.733 8.733 0 00-2.578-6.21A8.734 8.734 0 008.834 0a8.734 8.734 0 00-6.213 2.572 8.735 8.735 0 00-2.578 6.21c.002 1.71.476 3.314 1.451 4.903.844 1.377 1.941 2.578 3.102 3.85 1.139 1.246 2.316 2.535 3.256 4.023a.857.857 0 101.45-.917c-1.021-1.615-2.25-2.962-3.439-4.263zm15.912.411a.855.855 0 01-1.211.055l-.108-.099v2.838A2.418 2.418 0 0118.041 22h-4.82a2.418 2.418 0 01-2.414-2.416v-2.8l-.065.06a.858.858 0 11-1.157-1.267l4.427-4.047a2.42 2.42 0 013.282 0l2.836 2.593a.855.855 0 01.089.081l1.502 1.373c.35.32.374.863.054 1.212zm-3.034-1.612l-2.605-2.38a.713.713 0 00-.966 0l-2.648 2.42v4.367a.7.7 0 00.7.7h4.82a.7.7 0 00.699-.7v-4.407z" fill="#4C51CB"/></g><defs><clipPath id="clip0"><path fill="#fff" d="M0 0h22v22H0z"/></clipPath></defs></svg>
